projects/flag-game/flags/Tuvalu.svg

<svg viewBox="0 0 1000 500" xmlns="http://www.w3.org/2000/svg"><path d="m0 500v-250h500v-250h500v500zm0 0" fill="#5b97b1" stroke="#5b97b1" stroke-linecap="square" stroke-miterlimit="3.239307"/><g fill="#ffce00" fill-rule="evenodd"><path d="m909.699219 60.035156 9.328125-28.863281 9.332031 28.863281 30.277344-.019531-24.511719 17.808594 9.382812 28.847656-24.484374-17.851563-24.476563 17.84375 9.378906-28.839843-24.507812-17.820313zm0 0"/><path d="m821.035156 312.167969 9.332032-28.863281 9.332031 28.863281 30.277343-.023438-24.511718 17.8125 9.378906 28.847657-24.484375-17.855469-24.476563 17.847656 9.382813-28.839844-24.507813-17.816406zm0 0"/><path d="m909.699219 255.085938 9.328125-28.855469 9.332031 28.863281 30.277344-.023438-24.511719 17.8125 9.382812 28.847657-24.484374-17.859375-24.476563 17.851562 9.378906-28.847656-24.507812-17.8125zm0 0"/><path d="m528.449219 437.953125 9.335937-28.863281 9.328125 28.867187 30.277344-.023437-24.507813 17.8125 9.375 28.847656-24.480468-17.855469-24.480469 17.851563 9.382813-28.847656-24.511719-17.8125zm0 0"/><path d="m666.023438 331.648438-9.332032 28.863281-9.332031-28.863281-30.28125.023437 24.511719-17.8125-9.378906-28.847656 24.484374 17.855469 24.480469-17.851563-9.382812 28.847656 24.503906 17.8125zm0 0"/><path d="m771.023438 186.429688-9.328126 28.863281-9.332031-28.863281-30.277343.019531 24.511718-17.808594-9.382812-28.84375 24.484375 17.847656 24.476562-17.847656-9.378906 28.84375 24.507813 17.820313zm0 0"/><path d="m859.277344 156.269531-9.335938 28.863281-9.332031-28.863281-30.277344.019531 24.511719-17.808593-9.378906-28.847657 24.480468 17.851563 24.484376-17.851563-9.386719 28.847657 24.507812 17.816406zm0 0"/><path d="m771.023438 407.609375-9.328126 28.859375-9.332031-28.859375-30.277343.023437 24.511718-17.8125-9.382812-28.847656 24.484375 17.855469 24.476562-17.851563-9.378906 28.84375 24.507813 17.816407zm0 0"/><path d="m666.023438 433.300781-9.332032 28.863281-9.332031-28.863281-30.28125.019531 24.511719-17.808593-9.378906-28.847657 24.484374 17.851563 24.480469-17.84375-9.382812 28.839844 24.503906 17.816406zm0 0"/></g><path d="m0 250h500v-250h-500zm0 0" fill="#00247d" stroke="#00247d" stroke-linecap="square" stroke-miterlimit="3.239307"/><path d="m0 0v27.949219l444.097656 222.050781h55.902344v-27.949219l-444.097656-222.050781zm500 0v27.949219l-444.097656 222.050781h-55.902344v-27.953125l444.097656-222.046875zm0 0" fill="#fff" fill-rule="evenodd"/><path d="m0 250 166.664062-83.335938h37.269532l-166.667969 83.335938zm0-250 166.664062 83.335938h-37.265624l-129.398438-64.703126zm296.066406 83.335938 166.667969-83.335938h37.265625l-166.664062 83.335938zm203.933594 166.664062-166.664062-83.335938h37.265624l129.398438 64.703126zm0 0" fill="#cf142b" fill-rule="evenodd"/><path d="m208.335938 0v250h83.328124v-250zm0 0" fill="#fff" stroke="#fff" stroke-linecap="square" stroke-miterlimit="3.239307"/><path d="m0 83.335938v83.328124h500v-83.328124zm0 0" fill="#fff" stroke="#fff" stroke-linecap="square" stroke-miterlimit="3.239307"/><path d="m0 100v50h500v-50zm0 0" fill="#cf142b" stroke="#cf142b" stroke-linecap="square" stroke-miterlimit="3.239307"/><path d="m225 0v250h50v-250zm0 0" fill="#cf142b" stroke="#cf142b" stroke-linecap="square" stroke-miterlimit="3.239307"/></svg>

<?xml version="1.0" encoding="UTF-8"?>
<svg xmlns="http://www.w3.org/2000/svg" xmlns:xlink="http://www.w3.org/1999/xlink" viewBox="0 0 1000 500" version="1.1">
<g id="surface1220">
<path style="fill-rule:nonzero;fill:rgb(35.68573%,59.214783%,69.410706%);fill-opacity:1;stroke-width:1;stroke-linecap:square;stroke-linejoin:miter;stroke:rgb(35.68573%,59.214783%,69.410706%);stroke-opacity:1;stroke-miterlimit:3.239307;" d="M 0 500 L 0 250 L 500 250 L 500 0 L 1000 0 L 1000 500 Z M 0 500 "/>
<path style=" stroke:none;fill-rule:evenodd;fill:rgb(99.998474%,80.783081%,0%);fill-opacity:1;" d="M 909.699219 60.035156 L 919.027344 31.171875 L 928.359375 60.035156 L 958.636719 60.015625 L 934.125 77.824219 L 943.507812 106.671875 L 919.023438 88.820312 L 894.546875 106.664062 L 903.925781 77.824219 L 879.417969 60.003906 Z M 909.699219 60.035156 "/>
<path style=" stroke:none;fill-rule:evenodd;fill:rgb(99.998474%,80.783081%,0%);fill-opacity:1;" d="M 821.035156 312.167969 L 830.367188 283.304688 L 839.699219 312.167969 L 869.976562 312.144531 L 845.464844 329.957031 L 854.84375 358.804688 L 830.359375 340.949219 L 805.882812 358.796875 L 815.265625 329.957031 L 790.757812 312.140625 Z M 821.035156 312.167969 "/>
<path style=" stroke:none;fill-rule:evenodd;fill:rgb(99.998474%,80.783081%,0%);fill-opacity:1;" d="M 909.699219 255.085938 L 919.027344 226.230469 L 928.359375 255.09375 L 958.636719 255.070312 L 934.125 272.882812 L 943.507812 301.730469 L 919.023438 283.871094 L 894.546875 301.722656 L 903.925781 272.875 L 879.417969 255.0625 Z M 909.699219 255.085938 "/>
<path style=" stroke:none;fill-rule:evenodd;fill:rgb(99.998474%,80.783081%,0%);fill-opacity:1;" d="M 528.449219 437.953125 L 537.785156 409.089844 L 547.113281 437.957031 L 577.390625 437.933594 L 552.882812 455.746094 L 562.257812 484.59375 L 537.777344 466.738281 L 513.296875 484.589844 L 522.679688 455.742188 L 498.167969 437.929688 Z M 528.449219 437.953125 "/>
<path style=" stroke:none;fill-rule:evenodd;fill:rgb(99.998474%,80.783081%,0%);fill-opacity:1;" d="M 666.023438 331.648438 L 656.691406 360.511719 L 647.359375 331.648438 L 617.078125 331.671875 L 641.589844 313.859375 L 632.210938 285.011719 L 656.695312 302.867188 L 681.175781 285.015625 L 671.792969 313.863281 L 696.296875 331.675781 Z M 666.023438 331.648438 "/>
<path style=" stroke:none;fill-rule:evenodd;fill:rgb(99.998474%,80.783081%,0%);fill-opacity:1;" d="M 771.023438 186.429688 L 761.695312 215.292969 L 752.363281 186.429688 L 722.085938 186.449219 L 746.597656 168.640625 L 737.214844 139.796875 L 761.699219 157.644531 L 786.175781 139.796875 L 776.796875 168.640625 L 801.304688 186.460938 Z M 771.023438 186.429688 "/>
<path style=" stroke:none;fill-rule:evenodd;fill:rgb(99.998474%,80.783081%,0%);fill-opacity:1;" d="M 859.277344 156.269531 L 849.941406 185.132812 L 840.609375 156.269531 L 810.332031 156.289062 L 834.84375 138.480469 L 825.464844 109.632812 L 849.945312 127.484375 L 874.429688 109.632812 L 865.042969 138.480469 L 889.550781 156.296875 Z M 859.277344 156.269531 "/>
<path style=" stroke:none;fill-rule:evenodd;fill:rgb(99.998474%,80.783081%,0%);fill-opacity:1;" d="M 771.023438 407.609375 L 761.695312 436.46875 L 752.363281 407.609375 L 722.085938 407.632812 L 746.597656 389.820312 L 737.214844 360.972656 L 761.699219 378.828125 L 786.175781 360.976562 L 776.796875 389.820312 L 801.304688 407.636719 Z M 771.023438 407.609375 "/>
<path style=" stroke:none;fill-rule:evenodd;fill:rgb(99.998474%,80.783081%,0%);fill-opacity:1;" d="M 666.023438 433.300781 L 656.691406 462.164062 L 647.359375 433.300781 L 617.078125 433.320312 L 641.589844 415.511719 L 632.210938 386.664062 L 656.695312 404.515625 L 681.175781 386.671875 L 671.792969 415.511719 L 696.296875 433.328125 Z M 666.023438 433.300781 "/>
<path style="fill-rule:nonzero;fill:rgb(0%,14.117432%,49.01886%);fill-opacity:1;stroke-width:1;stroke-linecap:square;stroke-linejoin:miter;stroke:rgb(0%,14.117432%,49.01886%);stroke-opacity:1;stroke-miterlimit:3.239307;" d="M 0 250 L 500 250 L 500 0 L 0 0 Z M 0 250 "/>
<path style=" stroke:none;fill-rule:evenodd;fill:rgb(99.998474%,99.998474%,99.998474%);fill-opacity:1;" d="M 0 0 L 0 27.949219 L 444.097656 250 L 500 250 L 500 222.050781 L 55.902344 0 Z M 500 0 L 500 27.949219 L 55.902344 250 L 0 250 L 0 222.046875 L 444.097656 0 Z M 500 0 "/>
<path style=" stroke:none;fill-rule:evenodd;fill:rgb(81.175232%,7.843018%,16.862488%);fill-opacity:1;" d="M 0 250 L 166.664062 166.664062 L 203.933594 166.664062 L 37.265625 250 Z M 0 0 L 166.664062 83.335938 L 129.398438 83.335938 L 0 18.632812 Z M 296.066406 83.335938 L 462.734375 0 L 500 0 L 333.335938 83.335938 Z M 500 250 L 333.335938 166.664062 L 370.601562 166.664062 L 500 231.367188 Z M 500 250 "/>
<path style="fill-rule:nonzero;fill:rgb(99.998474%,99.998474%,99.998474%);fill-opacity:1;stroke-width:1;stroke-linecap:square;stroke-linejoin:miter;stroke:rgb(99.998474%,99.998474%,99.998474%);stroke-opacity:1;stroke-miterlimit:3.239307;" d="M 208.335938 0 L 208.335938 250 L 291.664062 250 L 291.664062 0 Z M 208.335938 0 "/>
<path style="fill-rule:nonzero;fill:rgb(99.998474%,99.998474%,99.998474%);fill-opacity:1;stroke-width:1;stroke-linecap:square;stroke-linejoin:miter;stroke:rgb(99.998474%,99.998474%,99.998474%);stroke-opacity:1;stroke-miterlimit:3.239307;" d="M 0 83.335938 L 0 166.664062 L 500 166.664062 L 500 83.335938 Z M 0 83.335938 "/>
<path style="fill-rule:nonzero;fill:rgb(81.175232%,7.843018%,16.862488%);fill-opacity:1;stroke-width:1;stroke-linecap:square;stroke-linejoin:miter;stroke:rgb(81.175232%,7.843018%,16.862488%);stroke-opacity:1;stroke-miterlimit:3.239307;" d="M 0 100 L 0 150 L 500 150 L 500 100 Z M 0 100 "/>
<path style="fill-rule:nonzero;fill:rgb(81.175232%,7.843018%,16.862488%);fill-opacity:1;stroke-width:1;stroke-linecap:square;stroke-linejoin:miter;stroke:rgb(81.175232%,7.843018%,16.862488%);stroke-opacity:1;stroke-miterlimit:3.239307;" d="M 225 0 L 225 250 L 275 250 L 275 0 Z M 225 0 "/>
</g>
</svg>
